X:437
T:Erwan's An Dros
Z:robin.beech@mcgill.ca
Z:Jack Campin, http://www.campin.me.uk/
F:Jack Campin's Nine-Note Tunebook
% last edit 29-07-2013
C:each section 16 bars
M:2/4
L:1/16
Q:1/4=120
K:DMin
P:A
D2A2 A2G2|A2GF E2F2|D2A2 A2G2|[1 E2F2 E4:|\
                              [2 E2F2 D4||
G2F2 E4  |G2F2 E4  |F4   D4  |   A4   G4 |\
F4   G2A2|F2E2 D2D2|F4   G2A2|   F2E2 D4:|
P:B
D2A2 A2GA|B2A2 GFEF|G2G2 A2G2|[1 FEDE F3E:|\
                              [2 FEDE D4 ||
D2D2 E2FE|D2D2 EDEF|G2G2 A2G2|[1 FEDE F3E:|\
                              [2 FEDE D4 ||
P:C
K:AMin
A2GA E3D|C3D  E2E2|A2GA E3D|C3D  E4:|
E2AB c3A|G2A2 B2B2|E2AB c3A|G2B2 A4:|
P:D
K:DMin
G2AG F3D |F2E2 DEFD|G2AG F3D|   F2E2 D4:|
CF2D E2E2|CF2D E4  |G2AG F3D|[1 F2ED C4:|\
                             [2 F2E2 D4|]

